X:21149 
T:O'MAHONY'S FROLICS 
B:DMI.0190
Z:Nordberg/Black
R:jig
%Q:1/4=160
M:6/8
L:1/8
K:D
G|F2D DFD|dAF AFD|EGE CEG|cGE CEG|
F2D DFD|dAF AFD|GBG EFG|AFD D2:|
g|f2d dfd|afd def|e2c cec|gec efg|
[1 f2d dfd|afd efg|fdB Ade|fdd d2:|
[2 afa geg|fdf ecA|GBG EFG|AFD D3|]

%%%

